third_party/noto/noto_2/emoji_u1f6d7.svg

<svg enable-background="new 0 0 128 128" version="1.1" viewBox="0 0 128 128" xmlns="http://www.w3.org/2000/svg"><path d="m116 4h-104c-4.42 0-8 3.58-8 8v104c0 4.42 3.58 8 8 8h104c4.42 0 8-3.58 8-8v-104c0-4.42-3.58-8-8-8z" fill="#194FA5"/><path d="m109.7 4h-98.2c-4.13 0.03-7.47 3.37-7.5 7.5v97.9c-0.01 4.14 3.34 7.49 7.48 7.5h0.02 98.1c4.14 0.01 7.49-3.34 7.5-7.48v-0.02-97.9c0.09-4.05-3.13-7.41-7.18-7.5h-0.22z" fill="#2262DD"/><polygon points="43.3 25.5 43.5 25.5 43.5 25.3" fill="none"/><polygon points="51.9 25.3 51.9 25.5 52.1 25.5" fill="none"/><path d="m51.6 37.7v-12.1h6c1.35 0.01 2.45-1.07 2.46-2.42 0.01-0.58-0.19-1.14-0.56-1.58l-7.7-9.2-0.4-0.4c-0.4-0.45-0.92-0.76-1.5-0.9-1.53-0.59-3.27-0.05-4.2 1.3 0 0.1-0.1 0.1-0.2 0.1l-7.6 9.2c-0.86 1.04-0.72 2.57 0.32 3.44 0.44 0.37 1.01 0.57 1.58 0.56h5.9v12.1c0 1.66 1.34 3 3 3 1.62-0.13 2.88-1.47 2.9-3.1z" fill="#FAFAFA"/><path d="m83.8 13.8 0.1 12.1h6c1.35-0.01 2.45 1.07 2.46 2.42 0.01 0.58-0.19 1.14-0.56 1.58l-7.7 9.2c-0.1 0.2-0.3 0.3-0.4 0.4-0.4 0.42-0.87 0.76-1.4 1-1.53 0.54-3.24 0.01-4.2-1.3-0.1 0-0.1-0.1-0.2-0.2l-7.6-9.2c-0.86-1.04-0.72-2.57 0.32-3.44 0.44-0.37 1.01-0.57 1.58-0.56h5.9l-0.1-12.1c0-1.66 1.34-3 3-3 1.58 0.18 2.78 1.51 2.8 3.1z" fill="#FAFAFA"/><path d="m103.4 46h-77c-4.34-0.03-7.87 3.46-7.9 7.8v0.1 51.6c-0.03 4.34 3.46 7.87 7.8 7.9h0.1 77c4.34 0.03 7.87-3.46 7.9-7.8v-0.1-51.6c-0.05-4.34-3.56-7.85-7.9-7.9zm-1 58.6h-74.8v-49.5h74.8v49.5z" fill="#FAFAFA"/><path d="m44.7 65.2c1.73-1.08 2.3-3.33 1.3-5.1-0.87-1.68-2.95-2.33-4.63-1.46-0.09 0.05-0.19 0.1-0.27 0.16l1.8 3.2-1.8-3.2c-1.73 1.08-2.3 3.33-1.3 5.1 1 1.71 3.19 2.29 4.9 1.3z" fill="#FAFAFA"/><path d="m36.9 84.8h0.9v15.1c-0.02 1.25 0.97 2.28 2.22 2.3h0.08c1.26-0.02 2.28-1.04 2.3-2.3v-15.1h0.8v15.1c-0.02 1.25 0.97 2.28 2.22 2.3h0.08c1.26-0.02 2.28-1.04 2.3-2.3v-15.1h0.8c1.21-0.01 2.19-0.99 2.2-2.2v-13.8c-0.01-1.21-0.99-2.19-2.2-2.2h-11.7c-1.21 0.01-2.19 0.99-2.2 2.2v13.8c0.01 1.21 0.99 2.19 2.2 2.2z" fill="#FAFAFA"/><path d="m40.2 102.2" fill="#FAFAFA"/><path d="m66.6 65.1c1.73-1.08 2.3-3.33 1.3-5.1-0.87-1.68-2.95-2.33-4.63-1.46-0.09 0.05-0.19 0.1-0.27 0.16l1.8 3.2-1.8-3.2c-1.73 1.08-2.3 3.33-1.3 5.1 0.87 1.68 2.95 2.33 4.63 1.46 0.09-0.05 0.18-0.1 0.27-0.16z" fill="#FAFAFA"/><path d="m58.9 84.7h0.8v15.1c-0.02 1.25 0.97 2.28 2.22 2.3h0.08c1.26-0.02 2.28-1.04 2.3-2.3v-15.1h0.8v15.1c0.02 1.26 1.04 2.28 2.3 2.3 1.25-0.05 2.25-1.05 2.3-2.3v-15.1h1c1.21-0.01 2.19-0.99 2.2-2.2v-13.7c-0.01-1.21-0.99-2.19-2.2-2.2h-11.8c-1.21 0.01-2.19 0.99-2.2 2.2v13.8c0.02 1.18 1 2.12 2.18 2.1h0.02z" fill="#FAFAFA"/><path d="m67.4 102.2" fill="#FAFAFA"/><path d="m88.6 65.1c1.73-1.08 2.3-3.33 1.3-5.1-0.87-1.68-2.95-2.33-4.63-1.46-0.09 0.05-0.19 0.1-0.27 0.16l1.8 3.2-1.8-3.2c-1.73 1.08-2.3 3.33-1.3 5.1 0.84 1.67 2.88 2.34 4.55 1.5 0.12-0.06 0.24-0.13 0.35-0.2z" fill="#FAFAFA"/><path d="m80.7 84.7h0.9v15c0 1.27 1.03 2.3 2.3 2.3s2.3-1.03 2.3-2.3v-15h0.8v15.1c0 1.27 1.03 2.3 2.3 2.3s2.3-1.03 2.3-2.3v-15.1h0.9c1.21-0.01 2.19-0.99 2.2-2.2v-13.7c-0.01-1.21-0.99-2.19-2.2-2.2h-11.8c-1.21 0.01-2.19 0.99-2.2 2.2v13.8c0.02 1.18 1 2.12 2.18 2.1h0.02z" fill="#FAFAFA"/><path d="m39.7 12.9c0-2.3-1.6-3-10.8-2.7-7.7 0.3-11.5 1.2-13.8 4s-2.9 8.5-3 15.3c0 4.8 0 9.3 2.5 9.3 3.4 0 3.4-7.9 6.2-12.3 5.4-8.7 18.9-10.6 18.9-13.6z" fill="#68ABE6"/></svg>

<?xml version="1.0" encoding="utf-8"?>
<!-- Generator: Adobe Illustrator 25.2.3, SVG Export Plug-In . SVG Version: 6.00 Build 0)  -->
<svg version="1.1" id="Layer_2" xmlns="http://www.w3.org/2000/svg" xmlns:xlink="http://www.w3.org/1999/xlink" x="0px" y="0px"
	 viewBox="0 0 128 128" style="enable-background:new 0 0 128 128;" xml:space="preserve">
<g>
	<path style="fill:#194FA5;" d="M116,4H12c-4.42,0-8,3.58-8,8v104c0,4.42,3.58,8,8,8h104c4.42,0,8-3.58,8-8V12
		C124,7.58,120.42,4,116,4z"/>
	<path style="fill:#2262DD;" d="M109.7,4H11.5C7.37,4.03,4.03,7.37,4,11.5v97.9c-0.01,4.14,3.34,7.49,7.48,7.5c0.01,0,0.01,0,0.02,0
		h98.1c4.14,0.01,7.49-3.34,7.5-7.48c0-0.01,0-0.01,0-0.02V11.5c0.09-4.05-3.13-7.41-7.18-7.5C109.85,4,109.77,4,109.7,4z"/>
	<polygon style="fill:none;" points="43.3,25.5 43.5,25.5 43.5,25.3 	"/>
	<polygon style="fill:none;" points="51.9,25.3 51.9,25.5 52.1,25.5 	"/>
	<path style="fill:#FAFAFA;" d="M51.6,37.7V25.6h6c1.35,0.01,2.45-1.07,2.46-2.42c0.01-0.58-0.19-1.14-0.56-1.58l-7.7-9.2L51.4,12
		c-0.4-0.45-0.92-0.76-1.5-0.9c-1.53-0.59-3.27-0.05-4.2,1.3c0,0.1-0.1,0.1-0.2,0.1l-7.6,9.2c-0.86,1.04-0.72,2.57,0.32,3.44
		c0.44,0.37,1.01,0.57,1.58,0.56h5.9v12.1c0,1.66,1.34,3,3,3l0,0C50.32,40.67,51.58,39.33,51.6,37.7z"/>
	<path style="fill:#FAFAFA;" d="M83.8,13.8l0.1,12.1h6c1.35-0.01,2.45,1.07,2.46,2.42c0.01,0.58-0.19,1.14-0.56,1.58l-7.7,9.2
		c-0.1,0.2-0.3,0.3-0.4,0.4c-0.4,0.42-0.87,0.76-1.4,1c-1.53,0.54-3.24,0.01-4.2-1.3c-0.1,0-0.1-0.1-0.2-0.2l-7.6-9.2
		c-0.86-1.04-0.72-2.57,0.32-3.44c0.44-0.37,1.01-0.57,1.58-0.56h5.9L78,13.7c0-1.66,1.34-3,3-3l0,0
		C82.58,10.88,83.78,12.21,83.8,13.8z"/>
	<path style="fill:#FAFAFA;" d="M103.4,46h-77c-4.34-0.03-7.87,3.46-7.9,7.8c0,0.03,0,0.07,0,0.1v51.6c-0.03,4.34,3.46,7.87,7.8,7.9
		c0.03,0,0.07,0,0.1,0h77c4.34,0.03,7.87-3.46,7.9-7.8c0-0.03,0-0.07,0-0.1V53.9C111.25,49.56,107.74,46.05,103.4,46z M102.4,104.6
		H27.6V55.1h74.8V104.6z"/>
	<path style="fill:#FAFAFA;" d="M44.7,65.2c1.73-1.08,2.3-3.33,1.3-5.1c-0.87-1.68-2.95-2.33-4.63-1.46
		c-0.09,0.05-0.19,0.1-0.27,0.16l1.8,3.2l-1.8-3.2c-1.73,1.08-2.3,3.33-1.3,5.1C40.8,65.61,42.99,66.19,44.7,65.2z"/>
	<path style="fill:#FAFAFA;" d="M36.9,84.8h0.9v15.1c-0.02,1.25,0.97,2.28,2.22,2.3c0.03,0,0.05,0,0.08,0
		c1.26-0.02,2.28-1.04,2.3-2.3V84.8h0.8v15.1c-0.02,1.25,0.97,2.28,2.22,2.3c0.03,0,0.05,0,0.08,0c1.26-0.02,2.28-1.04,2.3-2.3V84.8
		h0.8c1.21-0.01,2.19-0.99,2.2-2.2V68.8c-0.01-1.21-0.99-2.19-2.2-2.2H36.9c-1.21,0.01-2.19,0.99-2.2,2.2v13.8
		C34.71,83.81,35.69,84.79,36.9,84.8z"/>
	<path style="fill:#FAFAFA;" d="M40.2,102.2"/>
	<path style="fill:#FAFAFA;" d="M66.6,65.1c1.73-1.08,2.3-3.33,1.3-5.1c-0.87-1.68-2.95-2.33-4.63-1.46
		c-0.09,0.05-0.19,0.1-0.27,0.16l1.8,3.2L63,58.7c-1.73,1.08-2.3,3.33-1.3,5.1c0.87,1.68,2.95,2.33,4.63,1.46
		C66.42,65.21,66.51,65.16,66.6,65.1z"/>
	<path style="fill:#FAFAFA;" d="M58.9,84.7h0.8v15.1c-0.02,1.25,0.97,2.28,2.22,2.3c0.03,0,0.05,0,0.08,0
		c1.26-0.02,2.28-1.04,2.3-2.3V84.7h0.8v15.1c0.02,1.26,1.04,2.28,2.3,2.3c1.25-0.05,2.25-1.05,2.3-2.3V84.7h1
		c1.21-0.01,2.19-0.99,2.2-2.2V68.8c-0.01-1.21-0.99-2.19-2.2-2.2H58.9c-1.21,0.01-2.19,0.99-2.2,2.2v13.8
		c0.02,1.18,1,2.12,2.18,2.1C58.89,84.7,58.89,84.7,58.9,84.7z"/>
	<path style="fill:#FAFAFA;" d="M67.4,102.2"/>
	<path style="fill:#FAFAFA;" d="M88.6,65.1c1.73-1.08,2.3-3.33,1.3-5.1c-0.87-1.68-2.95-2.33-4.63-1.46
		c-0.09,0.05-0.19,0.1-0.27,0.16l1.8,3.2L85,58.7c-1.73,1.08-2.3,3.33-1.3,5.1c0.84,1.67,2.88,2.34,4.55,1.5
		C88.37,65.24,88.49,65.17,88.6,65.1z"/>
	<path style="fill:#FAFAFA;" d="M80.7,84.7h0.9v15c0,1.27,1.03,2.3,2.3,2.3s2.3-1.03,2.3-2.3c0,0,0,0,0,0v-15H87v15.1
		c0,1.27,1.03,2.3,2.3,2.3c1.27,0,2.3-1.03,2.3-2.3V84.7h0.9c1.21-0.01,2.19-0.99,2.2-2.2V68.8c-0.01-1.21-0.99-2.19-2.2-2.2H80.7
		c-1.21,0.01-2.19,0.99-2.2,2.2v13.8c0.02,1.18,1,2.12,2.18,2.1C80.69,84.7,80.69,84.7,80.7,84.7z"/>
	<path style="fill:#68ABE6;" d="M39.7,12.9c0-2.3-1.6-3-10.8-2.7c-7.7,0.3-11.5,1.2-13.8,4s-2.9,8.5-3,15.3c0,4.8,0,9.3,2.5,9.3
		c3.4,0,3.4-7.9,6.2-12.3C26.2,17.8,39.7,15.9,39.7,12.9z"/>
</g>
</svg>
